!!!COM: Igor (Fyodorovich) Stravinsky
!!!OTL: [T368_Str-13/23/1[24]1-6]
**kern	**kern	**kern	**kern	**kern	**kern	**kern	**kern	**kern	**kern	**kern	**dynam	**kern	**kern	**kern	**dynam	**kern	**dynam	**kern	**dynam	**kern	**dynam	**kern	**dynam
!!pagebreak:original
*	*	*	*	*	*	*	*	*	*	*	*	*	*	*stria1	*	*stria1	*	*stria1	*	*stria1	*	*	*
*clefF4	*clefF4	*clefC3	*clefG2	*clefG2	*clefG2	*clefG2	*clefF4	*clefF4	*clefG2	*clefG2	*	*clefG2	*clefG2	*clefX	*	*clefX	*	*clefX	*	*clefX	*	*clefG2	*
*Trd0c0	*	*	*	*	*	*	*	*	*	*	*	*Trd0c0	*Trd0c0	*	*	*	*	*	*	*	*	*	*
*k[f#c#g#d#a#]	*k[f#c#g#d#a#]	*k[f#c#g#d#a#]	*k[f#c#g#d#a#]	*k[f#c#g#d#a#]	*k[f#c#g#d#a#]	*k[f#c#g#d#a#]	*k[f#c#g#d#a#]	*k[f#c#g#d#a#]	*k[f#c#g#d#a#]	*k[f#c#g#d#a#]	*	*k[f#c#g#d#a#]	*k[f#c#g#d#a#]	*k[]	*	*k[]	*	*k[]	*	*k[]	*	*k[]	*
*B:	*B:	*B:	*B:	*B:	*B:	*B:	*B:	*B:	*B:	*B:	*	*B:	*B:	*C:	*	*C:	*	*C:	*	*C:	*	*	*
*M2/8	*M2/8	*M2/8	*M2/8	*M2/8	*M2/8	*M2/8	*M2/8	*M2/8	*M2/8	*M2/8	*	*M2/8	*M2/8	*M2/8	*	*M2/8	*	*M2/8	*	*M2/8	*	*M2/8	*
=1	=1	=1	=1	=1	=1	=1	=1	=1	=1	=1	=1	=1	=1	=1	=1	=1	=1	=1	=1	=1	=1	=1	=1
!	!	!	!	!LO:TX:t=[quarter]=72	!	!	!	!LO:TX:b:t=[f]	!	!	!	!	!LO:TX:b:t=[f]	!	!	!	!	!	!	!	!	!LO:TX:t=[quarter]=72	!
8r	8r	4r	4r	4r	4r	4r	8FF#L	8G#L	4r	4r	.	16cc#LL 16ff#	16aa#LL 16ddd#	4r	.	4r	.	4r	.	4r	.	4r	.
.	.	.	.	.	.	.	.	.	.	.	.	16a# 16dd#	16gg# 16ccc#	.	.	.	.	.	.	.	.	.	.
!LO:TX:b:t=[f]	!LO:TX:b:t=[f]	!	!	!	!	!	!	!	!	!	!	!	!	!	!	!	!	!	!	!	!	!	!
!LO:TX:a:t=[pizz.]	!LO:TX:a:t=[pizz.]	!	!	!	!	!	!	!	!	!	!	!	!	!	!	!	!	!	!	!	!	!	!
8C#	8GG#	.	.	.	.	.	8CC#J	8GG#J	.	.	.	16g# 16cc#	16ff# 16aa#	.	.	.	.	.	.	.	.	.	.
.	.	.	.	.	.	.	.	.	.	.	.	16f#JJ 16a#	16dd#JJ 16gg#	.	.	.	.	.	.	.	.	.	.
*	*	*	*	*	*	*	*	*clefG2	*	*	*	*	*	*	*	*	*	*	*	*	*	*	*
=2	=2	=2	=2	=2	=2	=2	=2	=2	=2	=2	=2	=2	=2	=2	=2	=2	=2	=2	=2	=2	=2	=2	=2
*M2/4	*M2/4	*M2/4	*M2/4	*M2/4	*M2/4	*M2/4	*M2/4	*M2/4	*M2/4	*M2/4	*	*M2/4	*M2/4	*M2/4	*	*M2/4	*	*M2/4	*	*M2/4	*	*M2/4	*
!	!	!LO:TX:a:t=div.pizz.	!LO:TX:a:t=div.pizz.	!LO:TX:a:t=Tuttidiv.pizz.	!	!	!	!	!	!	!	!	!	!	!	!	!	!	!	!	!	!	!
!	!	!LO:TX:b:t=[ff]	!LO:TX:b:t=[ff]	!LO:TX:b:t=[ff]	!	!	!	!	!	!LO:TX:b:i:t=Una corda e sempre poco	!	!	!	!	!	!	!	!LO:TX:a:t=secouez	!	!	!	!	!
8eL	8f#L	8F#L 8A#	8d#L 8g#	8cc#L 8ff#	8r	8r	.	16f#LL	8d#`L 8g#	8cc#`L 8ff#	sf	2r	8d#L 8g# 8cc# 8ff#	8r	.	4r	.	8r	.	8Re/	p	2r	.
.	.	.	.	.	.	.	16E	.	.	.	.	.	.	.	.	.	.	.	.	.	.	.	.
*	*	*	*	*	*	*	*	*	*	*	*	*clefF4	*	*	*	*	*	*	*	*	*	*	*
.	.	.	.	.	.	.	.	.	.	.	.	.	.	16qqRe/LL	pp	.	.	.	.	.	.	.	.
.	.	.	.	.	.	.	.	.	.	.	.	.	.	16qqRe/	.	.	.	.	.	.	.	.	.
!	!	!	!	!	!	!LO:TX:b:t=[ff]	!	!	!	!	!	!	!	!	!	!	!	!	!	!	!	!	!
.	.	.	.	.	.	.	.	.	.	.	.	.	.	16qqRe/JJ	.	.	.	8qRe/	p	.	.	.	.
8F#	8G#	8G# 8c#	8f# 8a#	8dd# 8gg#	[8c# [8f#	[8a# [8dd#	16G#	.	8f#` 8a#	8dd#` 8gg#	.	.	.	8Re/	.	.	.	8Re/	.	8r	.	.	.
.	.	.	.	.	.	.	16C#JJ	.	.	.	.	.	.	.	.	.	.	.	.	.	.	.	.
8EJ	8BBJ	8A# 8d#	8g# 8cc#	8ff# 8aa#	8r	8r	16FF#LL	.	8g#` 8cc#	8ff#` 8aa#	.	.	8d#L 8g# 8cc# 8ff#	4r	.	8Re/	p	4r	.	8r	.	.	.
.	.	.	.	.	.	.	16BBB	.	.	.	.	.	.	.	.	.	.	.	.	.	.	.	.
8eL	8f#L	8c#J 8f#	8a#J 8dd#	8gg#J 8ccc#	8c#_ 8f#_	8a#_ 8dd#_	16FF#	.	8a#`J 8dd#	8gg#`J 8ccc#	.	.	.	.	.	8r	.	.	.	8Re/	.	.	.
.	.	.	.	.	.	.	16C#JJ	.	.	.	.	.	.	.	.	.	.	.	.	.	.	.	.
=3	=3	=3	=3	=3	=3	=3	=3	=3	=3	=3	=3	=3	=3	=3	=3	=3	=3	=3	=3	=3	=3	=3	=3
.	.	.	.	.	.	.	.	.	.	.	.	.	.	16qqRe/LL	.	.	.	.	.	.	.	.	.
.	.	.	.	.	.	.	.	.	.	.	.	.	.	16qqRe/	.	.	.	.	.	.	.	.	.
.	.	.	.	.	.	.	.	.	.	.	.	.	.	16qqRe/JJ	.	.	.	8qRe/	.	.	.	.	.
8F#	8G#	16d#LL 16g#	16cc#LL 16ff#	16aa#LL 16ddd#	8r	8r	16ELL	2r	16cc#`LL 16ff#	16aa#`LL 16ddd#	.	2r	8d#L 8g# 8cc# 8ff#	8Re/	.	8r	.	8Re/	.	4r	.	8f#X~L	mp
.	.	16f#J 16a#	16dd#J 16gg#	16ccc#J 16fff#	.	.	16G#	.	16dd#`J 16gg#	16ccc#`J 16fff#	.	.	.	.	.	.	.	.	.	.	.	.	.
8D#J	8AA#J	8d#J 8g#	8cc#J 8ff#	8aa#J 8ddd#	8c#_ 8f#_	8a#_ 8dd#_	.	.	8cc#`J 8ff#	8aa#`J 8ddd#	.	.	.	8r	.	8Re/	.	8r	.	.	.	8g#X~	.
.	.	.	.	.	.	.	16EJJ	.	.	.	.	.	.	.	.	.	.	.	.	.	.	.	.
8eL	8f#L	8c#L 8f#	8a#L 8dd#	8gg#L 8ccc#	8r	8r	16G#LL	.	8a#`L 8dd#	8gg#`L 8ccc#	.	.	8d#L 8g# 8cc# 8ff#	8r	.	4r	.	8r	.	8Re/	.	8a#X~	.
.	.	.	.	.	.	.	16C#	.	.	.	.	.	.	.	.	.	.	.	.	.	.	.	.
.	.	.	.	.	.	.	.	.	.	.	.	.	.	16qqRe/LL	.	.	.	.	.	.	.	.	.
.	.	.	.	.	.	.	.	.	.	.	.	.	.	16qqRe/	.	.	.	.	.	.	.	.	.
.	.	.	.	.	.	.	.	.	.	.	.	.	.	16qqRe/JJ	.	.	.	8qRe/	.	.	.	.	.
8F#	8G#	16A#L 16d#	16g#L 16cc#	16ff#L 16aa#	8c#_ 8f#_	8a#_ 8dd#_	16FF#	.	16g#`L 16cc#	16ff#`L 16aa#	.	.	.	8Re/	.	.	.	8Re/	.	8r	.	8cc#X~J	.
.	.	16G#JJ 16c#	16f#JJ 16a#	16dd#JJ 16gg#	.	.	16BBBJJ	.	16f#`JJ 16a#	16dd#`JJ 16gg#	.	.	.	.	.	.	.	.	.	.	.	.	.
=4	=4	=4	=4	=4	=4	=4	=4	=4	=4	=4	=4	=4	=4	=4	=4	=4	=4	=4	=4	=4	=4	=4	=4
8C#J	8GG#J	8F#L 8A#	8d#L 8g#	8cc#L 8ff#	8r	8r	16FF#LL	2r	8d#`L 8g#	8cc#`L 8ff#	.	2r	8d#L 8g# 8cc# 8ff#	4r	.	8Re/	.	4r	.	8r	.	(16dd#X'LL	.
.	.	.	.	.	.	.	16C#	.	.	.	.	.	.	.	.	.	.	.	.	.	.	16ff#X'J)	.
8eL	8f#L	8G# 8c#	8f# 8a#	8dd# 8gg#	8c#_ 8f#_	8a#_ 8dd#_	16E	.	8f#` 8a#	8dd#` 8gg#	.	.	.	.	.	8r	.	.	.	8Re/	.	8dd#J	.
.	.	.	.	.	.	.	16G#JJ	.	.	.	.	.	.	.	.	.	.	.	.	.	.	.	.
.	.	.	.	.	.	.	.	.	.	.	.	.	.	16qqRe/LL	.	.	.	.	.	.	.	.	.
.	.	.	.	.	.	.	.	.	.	.	.	.	.	16qqRe/	.	.	.	.	.	.	.	.	.
.	.	.	.	.	.	.	.	.	.	.	.	.	.	16qqRe/JJ	.	.	.	8qRe/	.	.	.	.	.
8F#	8G#	8A# 8d#	8g# 8cc#	8ff# 8aa#	8r	8r	.	.	8g#` 8cc#	8ff#` 8aa#	.	.	8d#L 8g# 8cc# 8ff#	8Re/	.	8r	.	8Re/	.	4r	.	8cc#XL	.
.	.	.	.	.	.	.	16E	.	.	.	.	.	.	.	.	.	.	.	.	.	.	.	.
8EJ	8BBJ	8c#J 8f#	8a#J 8dd#	8gg#J 8ccc#	8c#_ 8f#_	8a#_ 8dd#_	16G#	.	8a#`J 8dd#	8gg#`J 8ccc#	.	.	.	8r	.	8Re/	.	8r	.	.	.	(16a#X'L	.
.	.	.	.	.	.	.	16C#JJ	.	.	.	.	.	.	.	.	.	.	.	.	.	.	16g#X'JJ)	.
!!pagebreak:original
=5	=5	=5	=5	=5	=5	=5	=5	=5	=5	=5	=5	=5	=5	=5	=5	=5	=5	=5	=5	=5	=5	=5	=5
8eL	8f#L	8d#L 8g#	8cc#L 8ff#	8aa#L 8ddd#	8r	8r	16FF#LL	2r	8cc#`L 8ff#	8aa#`L 8ddd#	.	2r	8d#L 8g# 8cc# 8ff#	8r	.	4r	.	8r	.	8Re/	.	8f#X	.
.	.	.	.	.	.	.	16BBB	.	.	.	.	.	.	.	.	.	.	.	.	.	.	.	.
.	.	.	.	.	.	.	.	.	.	.	.	.	.	16qqRe/LL	.	.	.	.	.	.	.	.	.
.	.	.	.	.	.	.	.	.	.	.	.	.	.	16qqRe/	.	.	.	.	.	.	.	.	.
.	.	.	.	.	.	.	.	.	.	.	.	.	.	16qqRe/JJ	.	.	.	8qqRe/	.	.	.	.	.
8F#	8G#	8f#J 8a#	8dd#J 8gg#	8ccc#J 8fff#	8c#_ 8f#_	8a#_ 8dd#_	16FF#	.	8dd#`J 8gg#	8ccc#`J 8fff#	.	.	.	8Re/	.	.	.	8Re/	.	8r	.	8r	.
.	.	.	.	.	.	.	16C#JJ	.	.	.	.	.	.	.	.	.	.	.	.	.	.	.	.
8D#J	8AA#J	16d#LL 16g#	16cc#LL 16ff#	16aa#LL 16ddd#	8r	8r	16ELL	.	16cc#`LL 16ff#	16aa#`LL 16ddd#	.	.	8d#L 8g# 8cc# 8ff#	8r	.	8Re/	.	8r	.	8r	.	4r	.
.	.	16c# 16f#	16a# 16dd#	16gg# 16ccc#	.	.	16G#	.	16a#` 16dd#	16gg#` 16ccc#	.	.	.	.	.	.	.	.	.	.	.	.	.
8eL	8f#L	16A# 16d#	16g# 16cc#	16ff# 16aa#	8c#_ 8f#_	8a#_ 8dd#_	.	.	16g#` 16cc#	16ff#` 16aa#	.	.	.	8r	.	8r	.	8r	.	8Re/	.	.	.
.	.	16G#JJ 16c#	16f#JJ 16a#	16dd#JJ 16gg#	.	.	16EJJ	.	16f#`JJ 16a#	16dd#`JJ 16gg#	.	.	.	.	.	.	.	.	.	.	.	.	.
=6	=6	=6	=6	=6	=6	=6	=6	=6	=6	=6	=6	=6	=6	=6	=6	=6	=6	=6	=6	=6	=6	=6	=6
.	.	.	.	.	.	.	.	.	.	.	.	.	.	16qqRe/LL	.	.	.	.	.	.	.	.	.
.	.	.	.	.	.	.	.	.	.	.	.	.	.	16qqRe/	.	.	.	.	.	.	.	.	.
.	.	.	.	.	.	.	.	.	.	.	.	.	.	16qqRe/JJ	.	.	.	8qqRe/	.	.	.	.	.
8F#	8G#	16F#LL 16A#	16d#LL 16g#	16cc#LL 16ff#	8r	8r	16G#LL	2r	16d#`LL 16g#	16cc#`LL 16ff#	.	2r	8d#L 8g# 8cc# 8ff#	8Re/	.	8r	.	8Re/	.	4r	.	8f#XL	.
.	.	16G# 16c#	16f# 16a#	16dd# 16gg#	.	.	16C#	.	16f#` 16a#	16dd#` 16gg#	.	.	.	.	.	.	.	.	.	.	.	.	.
8C#J	8GG#J	16A# 16d#	16g# 16cc#	16ff# 16aa#	8c#] 8f#]	8a#] 8dd#]	16FF#	.	16g#` 16cc#	16ff#` 16aa#	.	.	.	8r	.	8Re/	.	8r	.	.	.	8g#X	.
.	.	16c#JJ 16f#	16a#JJ 16dd#	16gg#JJ 16ccc#	.	.	16BBBJJ	.	16a#`JJ 16dd#	16gg#`JJ 16ccc#	.	.	.	.	.	.	.	.	.	.	.	.	.
8eL	8f#L	16d#LL 16g#	16cc#LL 16ff#	16aa#LL 16ddd#	8r	8r	16FF#LL	.	16cc#`LL 16ff#	16aa#`LL 16ddd#	.	.	8d#L 8g# 8cc# 8ff#	8r	.	4r	.	8r	.	8Re/	.	8a#X	.
.	.	16f# 16a#	16dd# 16gg#	16ccc# 16fff#	.	.	16C#	.	16dd#` 16gg#	16ccc#` 16fff#	.	.	.	.	.	.	.	.	.	.	.	.	.
.	.	.	.	.	.	.	.	.	.	.	.	.	.	16qqRe/LL	.	.	.	.	.	.	.	.	.
.	.	.	.	.	.	.	.	.	.	.	.	.	.	16qqRe/	.	.	.	.	.	.	.	.	.
.	.	.	.	.	.	.	.	.	.	.	.	.	.	16qqRe/JJ	.	.	.	8qqRe/	.	.	.	.	.
8F#	8G#	16g# 16cc#	16ff# 16aa#	16ddd# 16ggg#	8c# 8f#	8a# 8dd#	16E	.	16ff#` 16aa#	16ddd#` 16ggg#	.	.	.	8Re/	.	.	.	8Re/	.	8r	.	8cc#XJ	.
.	.	16f#JJ 16a#	16dd#JJ 16gg#	16ccc#JJ 16fff#	.	.	16G#JJ	.	16dd#`JJ 16gg#	16ccc#`JJ 16fff#	.	.	.	.	.	.	.	.	.	.	.	.	.
=7	=7	=7	=7	=7	=7	=7	=7	=7	=7	=7	=7	=7	=7	=7	=7	=7	=7	=7	=7	=7	=7	=7	=7
8EJ	8BBJ	16d#LL 16g#	16cc#LL 16ff#	16aa#LL 16ddd#	8r	8r	.	16f#LL	16cc#`LL 16ff#	16aa#`LL 16ddd#	.	2r	8d#L 8g# 8cc# 8ff#	4r	.	8Re/	.	8r	.	8r	.	12dd#XL	.
.	.	16c# 16f#	16a# 16dd#	16gg# 16ccc#	.	.	16E	.	16a#` 16dd#	16gg#` 16ccc#	.	.	.	.	.	.	.	.	.	.	.	.	.
.	.	.	.	.	.	.	.	.	.	.	.	.	.	.	.	.	.	.	.	.	.	12ff#X	.
8eL	8f#L	16A# 16d#	16g# 16cc#	16ff# 16aa#	8c# 8f#	8a# 8dd#	16G#	.	16g#` 16cc#	16ff#` 16aa#	.	.	.	.	.	4r	.	8r	.	8Re/	.	.	.
.	.	.	.	.	.	.	.	.	.	.	.	.	.	.	.	.	.	.	.	.	.	12dd#J	.
.	.	16G#JJ 16c#	16f#JJ 16a#	16dd#JJ 16gg#	.	.	16C#JJ	.	16f#`JJ 16a#	16dd#`JJ 16gg#	.	.	.	.	.	.	.	.	.	.	.	.	.
.	.	.	.	.	.	.	.	.	.	.	.	.	.	16qqRe/LL	.	.	.	.	.	.	.	.	.
.	.	.	.	.	.	.	.	.	.	.	.	.	.	16qqRe/	.	.	.	.	.	.	.	.	.
.	.	.	.	.	.	.	.	.	.	.	.	.	.	16qqRe/JJ	.	.	.	8qqRe/	.	.	.	.	.
8F#	8G#	16F#LL 16A#	16d#LL 16g#	16cc#LL 16ff#	8r	8r	16FF#LL	.	16d#`LL 16g#	16cc#`LL 16ff#	.	.	8d#L 8g# 8cc# 8ff#	8Re/	.	.	.	8Re/	.	4r	.	12cc#XL	.
.	.	16G# 16c#	16f# 16a#	16dd# 16gg#	.	.	16BBB	.	16f#` 16a#	16dd#` 16gg#	.	.	.	.	.	.	.	.	.	.	.	.	.
.	.	.	.	.	.	.	.	.	.	.	.	.	.	.	.	.	.	.	.	.	.	12a#X	.
8D#J	8AA#J	16A# 16d#	16g# 16cc#	16ff# 16aa#	8c# 8f#	8a# 8dd#	16FF#	.	16g#` 16cc#	16ff#` 16aa#	.	.	.	8r	.	8Re/	.	8r	.	.	.	.	.
.	.	.	.	.	.	.	.	.	.	.	.	.	.	.	.	.	.	.	.	.	.	12g#XJ	.
.	.	16c#JJ 16f#	16a#JJ 16dd#	16gg#JJ 16ccc#	.	.	16C#JJ	.	16a#`JJ 16dd#	16gg#`JJ 16ccc#	.	.	.	.	.	.	.	.	.	.	.	.	.
=	=	=	=	=	=	=	=	=	=	=	=	=	=	=	=	=	=	=	=	=	=	=	=
*-	*-	*-	*-	*-	*-	*-	*-	*-	*-	*-	*-	*-	*-	*-	*-	*-	*-	*-	*-	*-	*-	*-	*-
!!!system-decoration: [(s1,s2,s3,s4,s5[({(s6,s7)})][({(s8,s9)})][({(s10,s11)})][({(s12,s13)})]s14,s15,s16,s17,s18)]
